icons/brand/icon_card-maestro_s_white.svg

<svg xmlns="http://www.w3.org/2000/svg" width="18" height="14" viewBox="0 0 18 14"><g fill="#FFF" fill-rule="evenodd"><path d="M11.492.833c-.876 0-1.716.178-2.492.483A6.802 6.802 0 0 0 6.508.833c-3.584 0-6.5 2.754-6.5 6.14 0 3.384 2.916 6.138 6.5 6.138.876 0 1.716-.177 2.492-.482a6.802 6.802 0 0 0 2.492.482c3.584 0 6.5-2.754 6.5-6.139 0-3.385-2.916-6.139-6.5-6.139zm0 11.334a5.81 5.81 0 0 1-1.281-.156 6.217 6.217 0 0 0 2.288-2.655l-.921-.367c-.517 1.157-1.444 2.061-2.578 2.605-1.134-.545-2.061-1.448-2.578-2.605l-.921.367a6.217 6.217 0 0 0 2.288 2.655 5.81 5.81 0 0 1-1.281.156c-3.033 0-5.5-2.33-5.5-5.195 0-2.864 2.467-5.194 5.5-5.194.44 0 .866.062 1.281.156a6.21 6.21 0 0 0-2.286 2.649l.921.368C6.941 3.796 7.868 2.893 9 2.35c1.132.544 2.059 1.446 2.576 2.601l.921-.368a6.215 6.215 0 0 0-2.286-2.65 5.866 5.866 0 0 1 1.281-.154c3.033 0 5.5 2.33 5.5 5.194 0 2.865-2.467 5.195-5.5 5.195z"/><path d="M10.264 6.227l.009-.025.015-.024.019-.022.024-.02.029-.019.031-.016.036-.014.039-.012.044-.01.046-.005.064-.005.059-.003.052-.002h.048l.043.002.04.003.035.003.034.004.032.004.03.004.029.005.029.005.028.003.029.004.032.003.032.002.115-.488-.018-.002-.019-.003-.021-.003-.022-.004-.026-.003-.03-.004-.032-.004-.037-.005-.039-.002-.047-.005-.051-.003-.056-.004-.063-.003h-.069l-.077-.003h-.153l-.065.003-.064.003-.061.005-.057.006-.054.008-.053.009-.051.01-.048.012-.045.013-.043.015-.04.015-.038.018-.037.018-.033.02-.032.02-.03.023-.028.024-.025.026-.024.027-.022.029-.021.028-.018.032-.017.031-.015.035-.014.035-.011.037-.01.038-.009.04-.007.04-.006.043-.005.043-.005.07.002.067.008.06.013.056.019.05.022.046.027.043.031.039.033.035.037.033.038.028.042.026.043.024.044.023.045.02.045.018.046.017.045.017.044.016.042.016.041.015.04.017.037.016.033.017.031.018.027.02.022.02.018.024.013.024.008.029.001.03-.005.035-.009.033-.015.033-.017.033-.024.032-.032.027-.04.024-.052.017-.064.01-.069.003h-.067l-.067-.001-.065-.003-.066-.006-.062-.006-.061-.008-.057-.008-.054-.008-.051-.01-.048-.01-.043-.007-.037-.009-.034-.008-.027-.007-.022-.005-.099.473.04.014.038.014.038.01.039.01.041.01.042.008.044.008.048.006.051.006.058.005.06.003.069.003.075.002h.081l.09.002h.099l.071-.002.074-.004.077-.008.078-.011.078-.017.078-.023.077-.027.073-.033.07-.04.066-.047.059-.055.054-.063.046-.072.037-.081.029-.09.017-.102.008-.136-.008-.114-.024-.097-.036-.08-.048-.068-.058-.056-.065-.043-.069-.036-.073-.03-.077-.026-.075-.022-.072-.023-.068-.023-.064-.027-.054-.031-.047-.04-.022-.028-.017-.028-.012-.03-.006-.028v-.027zm1.664 1.058l.212-1.2.404.007.09-.482h-.395l.099-.527h-.641l-.426 2.358-.008.054-.005.05-.002.048.002.043.006.043.012.037.017.034.024.033.03.028.037.025.045.023.052.018.063.017.071.012.082.009.091.006h.172l.038-.004.037-.005.032-.005.03-.004.029-.004.027-.005.024-.005.022-.005.023-.007.019-.006.019-.005.018-.007.017-.008.018-.007.017-.008.016-.008.066-.412-.005.002-.013.006-.021.007-.027.008-.035.007-.041.007-.045.003h-.078l-.027-.002-.026-.001-.025-.005-.023-.004-.022-.005-.019-.008-.019-.008-.016-.01-.015-.012-.011-.015-.009-.015-.007-.018-.003-.02v-.022zM7.16 6.22l-.001-.082-.015-.076-.025-.071-.036-.065-.044-.059-.053-.053-.059-.048-.064-.042-.067-.036-.072-.032-.071-.026-.072-.02-.072-.016-.069-.01-.065-.005-.08-.002h-.36l-.066.004-.064.003-.062.006-.061.007-.057.01-.056.01-.054.013-.051.017-.051.02-.048.02-.164.513.024-.014.034-.012.042-.012.048-.011.056-.013.059-.01.065-.01.069-.01.072-.007.073-.008.073-.006.074-.004.073-.005.072-.002.069-.001.065.002.027.003.027.004.027.006.026.008.024.01.024.012.021.013.021.015.019.018.016.018.016.02.013.02.01.023.008.024.005.026.003.027v.038l-.008.042-.011.036-.005.015h-.018l-.012-.001h-.016l-.017-.002h-.021l-.022-.002h-.052l-.025-.001h-.027l-.029-.002h-.107l-.03.002h-.034l-.035.005-.038.003-.04.002-.038.005-.039.003-.038.003-.035.005-.032.002-.027.003-.024.003-.017.002-.012.002h-.003l-.078.013-.077.018-.075.025-.073.03-.07.035-.067.04-.063.044-.059.049-.052.056-.05.06-.041.062-.037.067-.03.073-.021.077-.014.08-.007.084.002.046.003.048.006.05.01.049.014.05.018.048.022.046.027.045.032.046.038.04.043.04.051.035.057.032.065.028.072.025.081.018.062.01.064.004.065-.002.067-.005.067-.009.067-.012.067-.017.065-.02.062-.023.061-.024.057-.028.053-.028.049-.03.043-.032.038-.033.03-.033-.006.01-.006.018-.005.027-.006.032-.006.038-.006.04-.006.046-.006.045h.576l.093-.48.238-1.13.012-.09zm-.807.682l-.007.032-.006.033-.006.036-.008.038-.008.036-.008.035-.008.033-.008.023-.01.024-.013.024-.016.025-.019.026-.022.024-.026.026-.03.023-.033.022-.039.021-.043.018-.048.015-.052.014-.06.01-.062.006-.07.002-.038-.002-.04-.007-.037-.015-.035-.023-.029-.033-.019-.045-.011-.057.003-.074.008-.036.013-.035.016-.032.022-.028.024-.027.027-.025.029-.023.03-.02.03-.017.03-.017.03-.014.027-.01.026-.01.024-.008.019-.006.014-.002.026-.008.03-.008.034-.005.035-.006.037-.006.037-.004.037-.006.037-.003h.069l.029.002.027.003.021.005.016.007.01.01.002.012-.008.027zM3.926 5.083l-.739 1.69-.107-1.69H1.995L1.47 7.921h.624l.394-2.125h.025l.007.104.014.248.021.342.024.387.024.384.02.335.015.237.006.088h.699l.929-2.125h.024l-.394 2.125h.624l.526-2.838zm10.105 1.102l.01.001.013.002h.013l.011.001.009.002.007.001h.003l.001-.008.007-.026.008-.04.013-.049.016-.055.017-.06.021-.061.024-.058.017-.041.021-.042.021-.04.022-.038.019-.032.016-.025.011-.017.004-.006h-.004l-.008-.003-.011-.001-.016-.003-.016-.003-.019-.002-.017-.003h-.016l-.071.005-.063.007-.059.013-.055.013-.051.018-.046.02-.045.023-.04.026-.04.03-.036.03-.034.033-.035.037-.033.038-.032.04-.034.042-.033.045.075-.389-.65-.006-.427 2.317h.649l.222-1.226.009-.048.012-.046.012-.047.016-.044.018-.043.022-.04.027-.04.031-.038.036-.033.042-.03.049-.027.055-.024.063-.02.072-.015.08-.009.089-.006zm1.229-.604l-.069.003-.067.007-.065.008-.064.012-.062.014-.061.016-.059.018-.056.02-.056.023-.054.027-.053.028-.049.03-.048.033-.046.035-.045.038-.041.04-.04.04-.038.046-.035.046-.034.05-.032.05-.029.052-.026.055-.023.058-.021.059-.019.06-.016.064-.014.065-.011.068-.008.07-.005.072-.002.07.002.07.005.066.008.065.011.061.014.06.018.06.019.055.022.053.024.051.029.05.029.046.034.046.034.042.038.04.038.039.042.036.045.033.045.032.048.028.049.027.051.024.053.023.056.02.056.018.057.015.061.012.061.01.062.01.062.005.065.003.065.002.065-.002.065-.003.064-.005.064-.008.061-.01.061-.013.061-.015.057-.018.057-.02.054-.022.054-.025.053-.027.049-.028.049-.032.046-.035.045-.036.043-.04.042-.04.04-.044.037-.046.034-.048.033-.051.029-.054.029-.056.024-.059.022-.06.021-.064.016-.066.014-.07.011-.07.01-.074.005-.076.002-.064-.002-.063-.003-.061-.006-.059-.01-.058-.013-.058-.014-.056-.018-.053-.02-.054-.024-.05-.024-.05-.029-.047-.03-.045-.032-.043-.035-.042-.038-.04-.04-.038-.042-.033-.045-.033-.047-.032-.048-.028-.053-.026-.053-.024-.056-.023-.059-.02-.059-.017-.062-.014-.064-.012-.067-.01-.069-.005-.07-.005-.072-.002-.068.003zm.179.511l.048.008.045.012.041.02.037.024.034.03.029.034.026.038.021.044.018.046.013.05.008.054.005.057v.06l-.005.062-.008.065-.014.084-.016.076-.021.07-.027.065-.026.059-.03.054-.032.048-.034.042-.038.038-.04.032-.043.027-.044.021-.048.017-.049.01-.053.006-.054.002-.049-.003-.046-.005-.045-.013-.04-.017-.037-.02-.033-.028-.03-.032-.027-.038-.022-.043-.018-.048-.015-.053-.01-.06-.005-.067v-.07l.005-.079.01-.084.01-.05.011-.051.016-.051.019-.051.021-.051.026-.048.029-.048.034-.046.035-.042.04-.038.045-.033.048-.03.053-.023.056-.018.061-.01.065-.005h.05zm-6.097.203l-.008-.066-.013-.063-.015-.06-.019-.056L9.265 6l-.026-.049-.027-.043-.03-.043-.034-.037-.035-.034-.038-.033-.038-.03-.042-.025-.041-.025-.043-.02-.045-.019-.046-.017-.047-.013-.046-.012-.046-.01-.048-.01-.046-.006-.047-.004-.046-.003-.045-.003h-.044l-.096.003-.089.006-.087.01-.081.016-.076.018-.072.023-.069.025-.064.027-.06.032-.056.033-.053.037-.048.038-.046.04-.042.042-.038.044L7.392 6l-.032.046-.03.046-.028.047-.025.046-.023.048-.02.046-.018.045-.016.047-.013.045-.013.043-.011.043-.008.04-.008.04-.006.036-.005.036-.005.032-.008.09-.003.088v.08l.006.08.01.075.014.069.018.066.022.064.026.059.029.055.032.051.035.05.037.046.042.042.043.04.045.036.048.033.048.03.051.027.053.026.054.023.054.02.056.016.056.017.057.013.057.012.057.01.059.007.057.006.056.002.057.003h.133l.07-.002h.064l.057-.004.053-.002.049-.005.045-.005.042-.004.04-.008.037-.007.035-.01.035-.012.035-.013.034-.013.037-.017.037-.018.098-.533-.068.037-.065.033L9 7.367l-.064.022-.064.02-.063.015-.064.01-.062.01-.061.004-.062.003h-.059L8.44 7.45l-.059-.003-.059-.005-.058-.008-.057-.007-.048-.01-.048-.016-.044-.02-.044-.024-.04-.029-.036-.03-.035-.035-.03-.036-.027-.038-.023-.038-.019-.04L7.8 7.07l-.01-.04-.003-.04.002-.038.006-.03h1.478l.026-.134.019-.093.014-.09.008-.083.005-.08v-.076l-.003-.07zm-.629.15l-.005.057h-.83l.008-.04.011-.046.013-.045.016-.043.019-.039.022-.037.025-.035.026-.032.029-.03.03-.025.033-.024.035-.02.037-.017.038-.011.042-.008.041-.005h.045l.041.002.04.004.038.01.037.012.034.015.032.018.03.023.027.027.024.03.021.034.016.037.012.04.01.045.003.05v.052z"/></g></svg>

<?xml version="1.0" encoding="UTF-8"?>
<svg width="18px" height="18px" viewBox="0 0 18 18" version="1.1" xmlns="http://www.w3.org/2000/svg" xmlns:xlink="http://www.w3.org/1999/xlink">
    <!-- Generator: Sketch 48.2 (47327) - http://www.bohemiancoding.com/sketch -->
    <title>icon_card-maestro_s_white</title>
    <desc>Created with Sketch.</desc>
    <defs></defs>
    <g id="card" stroke="none" stroke-width="1" fill="none" fill-rule="evenodd" transform="translate(-113.000000, -15.000000)">
        <g id="icon_card-maestro_s_white" transform="translate(113.000000, 17.000000)" fill="#FFFFFF">
            <path d="M11.492,0.833 C10.616,0.833 9.776,1.011 9,1.316 C8.20699931,1.00005876 7.36161507,0.836206197 6.508,0.833 C2.924,0.833 0.008,3.587 0.008,6.973 C0.008,10.357 2.924,13.111 6.508,13.111 C7.384,13.111 8.224,12.934 9,12.629 C9.79306687,12.9445992 10.6384489,13.108112 11.492,13.111 C15.076,13.111 17.992,10.357 17.992,6.972 C17.992,3.587 15.076,0.833 11.492,0.833 Z M11.492,12.167 C11.060532,12.1627291 10.6308824,12.1104065 10.211,12.011 C11.2125068,11.3637408 12.006739,10.4421121 12.499,9.356 L11.578,8.989 C11.061,10.146 10.134,11.05 9,11.594 C7.866,11.049 6.939,10.146 6.422,8.989 L5.501,9.356 C5.99326104,10.4421121 6.78749323,11.3637408 7.789,12.011 C7.36911756,12.1104065 6.93946804,12.1627291 6.508,12.167 C3.475,12.167 1.008,9.837 1.008,6.972 C1.008,4.108 3.475,1.778 6.508,1.778 C6.948,1.778 7.374,1.84 7.789,1.934 C6.78884763,2.57963738 5.99534543,3.4991419 5.503,4.583 L6.424,4.951 C6.941,3.796 7.868,2.893 9,2.35 C10.132,2.894 11.059,3.796 11.576,4.951 L12.497,4.583 C12.0045754,3.49892741 11.2111118,2.57912055 10.211,1.933 C10.6310385,1.83472076 11.0606364,1.78307511 11.492,1.779 C14.525,1.779 16.992,4.109 16.992,6.973 C16.992,9.838 14.525,12.168 11.492,12.168 L11.492,12.167 Z" id="Shape"></path>
            <path d="M10.264,6.227 L10.273,6.202 L10.288,6.178 L10.307,6.156 L10.331,6.136 L10.36,6.117 L10.391,6.101 L10.427,6.087 L10.466,6.075 L10.51,6.065 L10.556,6.06 L10.62,6.055 L10.679,6.052 L10.731,6.05 L10.779,6.05 L10.822,6.052 L10.862,6.055 L10.897,6.058 L10.931,6.062 L10.963,6.066 L10.993,6.07 L11.022,6.075 L11.051,6.08 L11.079,6.083 L11.108,6.087 L11.14,6.09 L11.172,6.092 L11.287,5.604 L11.269,5.602 L11.25,5.599 L11.229,5.596 L11.207,5.592 L11.181,5.589 L11.151,5.585 L11.119,5.581 L11.082,5.576 L11.043,5.574 L10.996,5.569 L10.945,5.566 L10.889,5.562 L10.826,5.559 L10.757,5.559 L10.68,5.556 L10.527,5.556 L10.462,5.559 L10.398,5.562 L10.337,5.567 L10.28,5.573 L10.226,5.581 L10.173,5.59 L10.122,5.6 L10.074,5.612 L10.029,5.625 L9.986,5.64 L9.946,5.655 L9.908,5.673 L9.871,5.691 L9.838,5.711 L9.806,5.731 L9.776,5.754 L9.748,5.778 L9.723,5.804 L9.699,5.831 L9.677,5.86 L9.656,5.888 L9.638,5.92 L9.621,5.951 L9.606,5.986 L9.592,6.021 L9.581,6.058 L9.571,6.096 L9.562,6.136 L9.555,6.176 L9.549,6.219 L9.544,6.262 L9.539,6.332 L9.541,6.399 L9.549,6.459 L9.562,6.515 L9.581,6.565 L9.603,6.611 L9.63,6.654 L9.661,6.693 L9.694,6.728 L9.731,6.761 L9.769,6.789 L9.811,6.815 L9.854,6.839 L9.898,6.862 L9.943,6.882 L9.988,6.9 L10.034,6.917 L10.079,6.934 L10.123,6.95 L10.165,6.966 L10.206,6.981 L10.246,6.998 L10.283,7.014 L10.316,7.031 L10.347,7.049 L10.374,7.069 L10.396,7.089 L10.414,7.113 L10.427,7.137 L10.435,7.166 L10.436,7.196 L10.431,7.231 L10.422,7.264 L10.407,7.297 L10.39,7.33 L10.366,7.362 L10.334,7.389 L10.294,7.413 L10.242,7.43 L10.178,7.44 L10.109,7.443 L10.042,7.443 L9.975,7.442 L9.91,7.439 L9.844,7.433 L9.782,7.427 L9.721,7.419 L9.664,7.411 L9.61,7.403 L9.559,7.393 L9.511,7.383 L9.468,7.376 L9.431,7.367 L9.397,7.359 L9.37,7.352 L9.348,7.347 L9.249,7.82 L9.289,7.834 L9.327,7.848 L9.365,7.858 L9.404,7.868 L9.445,7.878 L9.487,7.886 L9.531,7.894 L9.579,7.9 L9.63,7.906 L9.688,7.911 L9.748,7.914 L9.817,7.917 L9.892,7.919 L9.973,7.919 L10.063,7.921 L10.162,7.921 L10.233,7.919 L10.307,7.915 L10.384,7.907 L10.462,7.896 L10.54,7.879 L10.618,7.856 L10.695,7.829 L10.768,7.796 L10.838,7.756 L10.904,7.709 L10.963,7.654 L11.017,7.591 L11.063,7.519 L11.1,7.438 L11.129,7.348 L11.146,7.246 L11.154,7.11 L11.146,6.996 L11.122,6.899 L11.086,6.819 L11.038,6.751 L10.98,6.695 L10.915,6.652 L10.846,6.616 L10.773,6.586 L10.696,6.56 L10.621,6.538 L10.549,6.515 L10.481,6.492 L10.417,6.465 L10.363,6.434 L10.316,6.394 L10.294,6.366 L10.277,6.338 L10.265,6.308 L10.259,6.28 L10.259,6.253 L10.264,6.227 Z M11.928,7.285 L12.14,6.085 L12.544,6.092 L12.634,5.61 L12.239,5.61 L12.338,5.083 L11.697,5.083 L11.271,7.441 L11.263,7.495 L11.258,7.545 L11.256,7.593 L11.258,7.636 L11.264,7.679 L11.276,7.716 L11.293,7.75 L11.317,7.783 L11.347,7.811 L11.384,7.836 L11.429,7.859 L11.481,7.877 L11.544,7.894 L11.615,7.906 L11.697,7.915 L11.788,7.921 L11.96,7.921 L11.998,7.917 L12.035,7.912 L12.067,7.907 L12.097,7.903 L12.126,7.899 L12.153,7.894 L12.177,7.889 L12.199,7.884 L12.222,7.877 L12.241,7.871 L12.26,7.866 L12.278,7.859 L12.295,7.851 L12.313,7.844 L12.33,7.836 L12.346,7.828 L12.412,7.416 L12.407,7.418 L12.394,7.424 L12.373,7.431 L12.346,7.439 L12.311,7.446 L12.27,7.453 L12.225,7.456 L12.147,7.456 L12.12,7.454 L12.094,7.453 L12.069,7.448 L12.046,7.444 L12.024,7.439 L12.005,7.431 L11.986,7.423 L11.97,7.413 L11.955,7.401 L11.944,7.386 L11.935,7.371 L11.928,7.353 L11.925,7.333 L11.925,7.311 L11.928,7.285 Z M7.16,6.22 L7.159,6.138 L7.144,6.062 L7.119,5.991 L7.083,5.926 L7.039,5.867 L6.986,5.814 L6.927,5.766 L6.863,5.724 L6.796,5.688 L6.724,5.656 L6.653,5.63 L6.581,5.61 L6.509,5.594 L6.44,5.584 L6.375,5.579 L6.295,5.577 L5.935,5.577 L5.869,5.581 L5.805,5.584 L5.743,5.59 L5.682,5.597 L5.625,5.607 L5.569,5.617 L5.515,5.63 L5.464,5.647 L5.413,5.667 L5.365,5.687 L5.201,6.2 L5.225,6.186 L5.259,6.174 L5.301,6.162 L5.349,6.151 L5.405,6.138 L5.464,6.128 L5.529,6.118 L5.598,6.108 L5.67,6.101 L5.743,6.093 L5.816,6.087 L5.89,6.083 L5.963,6.078 L6.035,6.076 L6.104,6.075 L6.169,6.077 L6.196,6.08 L6.223,6.084 L6.25,6.09 L6.276,6.098 L6.3,6.108 L6.324,6.12 L6.345,6.133 L6.366,6.148 L6.385,6.166 L6.401,6.184 L6.417,6.204 L6.43,6.224 L6.44,6.247 L6.448,6.271 L6.453,6.297 L6.456,6.324 L6.456,6.362 L6.448,6.404 L6.437,6.44 L6.432,6.455 L6.414,6.455 L6.402,6.454 L6.386,6.454 L6.369,6.452 L6.348,6.452 L6.326,6.45 L6.274,6.45 L6.249,6.449 L6.222,6.449 L6.193,6.447 L6.086,6.447 L6.056,6.449 L6.022,6.449 L5.987,6.454 L5.949,6.457 L5.909,6.459 L5.871,6.464 L5.832,6.467 L5.794,6.47 L5.759,6.475 L5.727,6.477 L5.7,6.48 L5.676,6.483 L5.659,6.485 L5.647,6.487 L5.644,6.487 L5.566,6.5 L5.489,6.518 L5.414,6.543 L5.341,6.573 L5.271,6.608 L5.204,6.648 L5.141,6.692 L5.082,6.741 L5.03,6.797 L4.98,6.857 L4.939,6.919 L4.902,6.986 L4.872,7.059 L4.851,7.136 L4.837,7.216 L4.83,7.3 L4.832,7.346 L4.835,7.394 L4.841,7.444 L4.851,7.493 L4.865,7.543 L4.883,7.591 L4.905,7.637 L4.932,7.682 L4.964,7.728 L5.002,7.768 L5.045,7.808 L5.096,7.843 L5.153,7.875 L5.218,7.903 L5.29,7.928 L5.371,7.946 L5.433,7.956 L5.497,7.96 L5.562,7.958 L5.629,7.953 L5.696,7.944 L5.763,7.932 L5.83,7.915 L5.895,7.895 L5.957,7.872 L6.018,7.848 L6.075,7.82 L6.128,7.792 L6.177,7.762 L6.22,7.73 L6.258,7.697 L6.288,7.664 L6.282,7.674 L6.276,7.692 L6.271,7.719 L6.265,7.751 L6.259,7.789 L6.253,7.829 L6.247,7.875 L6.241,7.92 L6.817,7.92 L6.91,7.44 L7.148,6.31 L7.16,6.22 Z M6.353,6.902 L6.346,6.934 L6.34,6.967 L6.334,7.003 L6.326,7.041 L6.318,7.077 L6.31,7.112 L6.302,7.145 L6.294,7.168 L6.284,7.192 L6.271,7.216 L6.255,7.241 L6.236,7.267 L6.214,7.291 L6.188,7.317 L6.158,7.34 L6.125,7.362 L6.086,7.383 L6.043,7.401 L5.995,7.416 L5.943,7.43 L5.883,7.44 L5.821,7.446 L5.751,7.448 L5.713,7.446 L5.673,7.439 L5.636,7.424 L5.601,7.401 L5.572,7.368 L5.553,7.323 L5.542,7.266 L5.545,7.192 L5.553,7.156 L5.566,7.121 L5.582,7.089 L5.604,7.061 L5.628,7.034 L5.655,7.009 L5.684,6.986 L5.714,6.966 L5.744,6.949 L5.774,6.932 L5.804,6.918 L5.831,6.908 L5.857,6.898 L5.881,6.89 L5.9,6.884 L5.914,6.882 L5.94,6.874 L5.97,6.866 L6.004,6.861 L6.039,6.855 L6.076,6.849 L6.113,6.845 L6.15,6.839 L6.187,6.836 L6.256,6.836 L6.285,6.838 L6.312,6.841 L6.333,6.846 L6.349,6.853 L6.359,6.863 L6.361,6.875 L6.353,6.902 Z M3.926,5.083 L3.187,6.773 L3.08,5.083 L1.995,5.083 L1.47,7.921 L2.094,7.921 L2.488,5.796 L2.513,5.796 L2.52,5.9 L2.534,6.148 L2.555,6.49 L2.579,6.877 L2.603,7.261 L2.623,7.596 L2.638,7.833 L2.644,7.921 L3.343,7.921 L4.272,5.796 L4.296,5.796 L3.902,7.921 L4.526,7.921 L5.052,5.083 L3.926,5.083 Z M14.031,6.185 L14.041,6.186 L14.054,6.188 L14.067,6.188 L14.078,6.189 L14.087,6.191 L14.094,6.192 L14.097,6.192 L14.098,6.184 L14.105,6.158 L14.113,6.118 L14.126,6.069 L14.142,6.014 L14.159,5.954 L14.18,5.893 L14.204,5.835 L14.221,5.794 L14.242,5.752 L14.263,5.712 L14.285,5.674 L14.304,5.642 L14.32,5.617 L14.331,5.6 L14.335,5.594 L14.331,5.594 L14.323,5.591 L14.312,5.59 L14.296,5.587 L14.28,5.584 L14.261,5.582 L14.244,5.579 L14.228,5.579 L14.157,5.584 L14.094,5.591 L14.035,5.604 L13.98,5.617 L13.929,5.635 L13.883,5.655 L13.838,5.678 L13.798,5.704 L13.758,5.734 L13.722,5.764 L13.688,5.797 L13.653,5.834 L13.62,5.872 L13.588,5.912 L13.554,5.954 L13.521,5.999 L13.596,5.61 L12.946,5.604 L12.519,7.921 L13.168,7.921 L13.39,6.695 L13.399,6.647 L13.411,6.601 L13.423,6.554 L13.439,6.51 L13.457,6.467 L13.479,6.427 L13.506,6.387 L13.537,6.349 L13.573,6.316 L13.615,6.286 L13.664,6.259 L13.719,6.235 L13.782,6.215 L13.854,6.2 L13.934,6.191 L14.023,6.185 L14.031,6.185 Z M15.26,5.581 L15.191,5.584 L15.124,5.591 L15.059,5.599 L14.995,5.611 L14.933,5.625 L14.872,5.641 L14.813,5.659 L14.757,5.679 L14.701,5.702 L14.647,5.729 L14.594,5.757 L14.545,5.787 L14.497,5.82 L14.451,5.855 L14.406,5.893 L14.365,5.933 L14.325,5.973 L14.287,6.019 L14.252,6.065 L14.218,6.115 L14.186,6.165 L14.157,6.217 L14.131,6.272 L14.108,6.33 L14.087,6.389 L14.068,6.449 L14.052,6.513 L14.038,6.578 L14.027,6.646 L14.019,6.716 L14.014,6.788 L14.012,6.858 L14.014,6.928 L14.019,6.994 L14.027,7.059 L14.038,7.12 L14.052,7.18 L14.07,7.24 L14.089,7.295 L14.111,7.348 L14.135,7.399 L14.164,7.449 L14.193,7.495 L14.227,7.541 L14.261,7.583 L14.299,7.623 L14.337,7.662 L14.379,7.698 L14.424,7.731 L14.469,7.763 L14.517,7.791 L14.566,7.818 L14.617,7.842 L14.67,7.865 L14.726,7.885 L14.782,7.903 L14.839,7.918 L14.9,7.93 L14.961,7.94 L15.023,7.95 L15.085,7.955 L15.15,7.958 L15.215,7.96 L15.28,7.958 L15.345,7.955 L15.409,7.95 L15.473,7.942 L15.534,7.932 L15.595,7.919 L15.656,7.904 L15.713,7.886 L15.77,7.866 L15.824,7.844 L15.878,7.819 L15.931,7.792 L15.98,7.764 L16.029,7.732 L16.075,7.697 L16.12,7.661 L16.163,7.621 L16.205,7.581 L16.245,7.537 L16.282,7.491 L16.316,7.443 L16.349,7.392 L16.378,7.338 L16.407,7.282 L16.431,7.223 L16.453,7.163 L16.474,7.099 L16.49,7.033 L16.504,6.963 L16.515,6.893 L16.525,6.819 L16.53,6.743 L16.532,6.679 L16.53,6.616 L16.527,6.555 L16.521,6.496 L16.511,6.438 L16.498,6.38 L16.484,6.324 L16.466,6.271 L16.446,6.217 L16.422,6.167 L16.398,6.117 L16.369,6.07 L16.339,6.025 L16.307,5.982 L16.272,5.94 L16.234,5.9 L16.194,5.862 L16.152,5.829 L16.107,5.796 L16.06,5.764 L16.012,5.736 L15.959,5.71 L15.906,5.686 L15.85,5.663 L15.791,5.643 L15.732,5.626 L15.67,5.612 L15.606,5.6 L15.539,5.59 L15.47,5.585 L15.4,5.58 L15.328,5.578 L15.26,5.581 Z M15.439,6.092 L15.487,6.1 L15.532,6.112 L15.573,6.132 L15.61,6.156 L15.644,6.186 L15.673,6.22 L15.699,6.258 L15.72,6.302 L15.738,6.348 L15.751,6.398 L15.759,6.452 L15.764,6.509 L15.764,6.569 L15.759,6.631 L15.751,6.696 L15.737,6.78 L15.721,6.856 L15.7,6.926 L15.673,6.991 L15.647,7.05 L15.617,7.104 L15.585,7.152 L15.551,7.194 L15.513,7.232 L15.473,7.264 L15.43,7.291 L15.386,7.312 L15.338,7.329 L15.289,7.339 L15.236,7.345 L15.182,7.347 L15.133,7.344 L15.087,7.339 L15.042,7.326 L15.002,7.309 L14.965,7.289 L14.932,7.261 L14.902,7.229 L14.875,7.191 L14.853,7.148 L14.835,7.1 L14.82,7.047 L14.81,6.987 L14.805,6.92 L14.805,6.85 L14.81,6.771 L14.82,6.687 L14.83,6.637 L14.841,6.586 L14.857,6.535 L14.876,6.484 L14.897,6.433 L14.923,6.385 L14.952,6.337 L14.986,6.291 L15.021,6.249 L15.061,6.211 L15.106,6.178 L15.154,6.148 L15.207,6.125 L15.263,6.107 L15.324,6.097 L15.389,6.092 L15.439,6.092 Z M9.342,6.295 L9.334,6.229 L9.321,6.166 L9.306,6.106 L9.287,6.05 L9.265,6 L9.239,5.951 L9.212,5.908 L9.182,5.865 L9.148,5.828 L9.113,5.794 L9.075,5.761 L9.037,5.731 L8.995,5.706 L8.954,5.681 L8.911,5.661 L8.866,5.642 L8.82,5.625 L8.773,5.612 L8.727,5.6 L8.681,5.59 L8.633,5.58 L8.587,5.574 L8.54,5.57 L8.494,5.567 L8.449,5.564 L8.405,5.564 L8.309,5.567 L8.22,5.573 L8.133,5.583 L8.052,5.599 L7.976,5.617 L7.904,5.64 L7.835,5.665 L7.771,5.692 L7.711,5.724 L7.655,5.757 L7.602,5.794 L7.554,5.832 L7.508,5.872 L7.466,5.914 L7.428,5.958 L7.392,6 L7.36,6.046 L7.33,6.092 L7.302,6.139 L7.277,6.185 L7.254,6.233 L7.234,6.279 L7.216,6.324 L7.2,6.371 L7.187,6.416 L7.174,6.459 L7.163,6.502 L7.155,6.542 L7.147,6.582 L7.141,6.618 L7.136,6.654 L7.131,6.686 L7.123,6.776 L7.12,6.864 L7.12,6.944 L7.126,7.024 L7.136,7.099 L7.15,7.168 L7.168,7.234 L7.19,7.298 L7.216,7.357 L7.245,7.412 L7.277,7.463 L7.312,7.513 L7.349,7.559 L7.391,7.601 L7.434,7.641 L7.479,7.677 L7.527,7.71 L7.575,7.74 L7.626,7.767 L7.679,7.793 L7.733,7.816 L7.787,7.836 L7.843,7.852 L7.899,7.869 L7.956,7.882 L8.013,7.894 L8.07,7.904 L8.129,7.911 L8.186,7.917 L8.242,7.919 L8.299,7.922 L8.432,7.922 L8.502,7.92 L8.566,7.92 L8.623,7.916 L8.676,7.914 L8.725,7.909 L8.77,7.904 L8.812,7.9 L8.852,7.892 L8.889,7.885 L8.924,7.875 L8.959,7.863 L8.994,7.85 L9.028,7.837 L9.065,7.82 L9.102,7.802 L9.2,7.269 L9.132,7.306 L9.067,7.339 L9,7.367 L8.936,7.389 L8.872,7.409 L8.809,7.424 L8.745,7.434 L8.683,7.444 L8.622,7.448 L8.56,7.451 L8.501,7.451 L8.44,7.45 L8.381,7.447 L8.322,7.442 L8.264,7.434 L8.207,7.427 L8.159,7.417 L8.111,7.401 L8.067,7.381 L8.023,7.357 L7.983,7.328 L7.947,7.298 L7.912,7.263 L7.882,7.227 L7.855,7.189 L7.832,7.151 L7.813,7.111 L7.8,7.07 L7.79,7.03 L7.787,6.99 L7.789,6.952 L7.795,6.922 L9.273,6.922 L9.299,6.788 L9.318,6.695 L9.332,6.605 L9.34,6.522 L9.345,6.442 L9.345,6.366 L9.342,6.296 L9.342,6.295 Z M8.713,6.445 L8.708,6.502 L7.878,6.502 L7.886,6.462 L7.897,6.416 L7.91,6.371 L7.926,6.328 L7.945,6.289 L7.967,6.252 L7.992,6.217 L8.018,6.185 L8.047,6.155 L8.077,6.13 L8.11,6.106 L8.145,6.086 L8.182,6.069 L8.22,6.058 L8.262,6.05 L8.303,6.045 L8.348,6.045 L8.389,6.047 L8.429,6.051 L8.467,6.061 L8.504,6.073 L8.538,6.088 L8.57,6.106 L8.6,6.129 L8.627,6.156 L8.651,6.186 L8.672,6.22 L8.688,6.257 L8.7,6.297 L8.71,6.342 L8.713,6.392 L8.713,6.444 L8.713,6.445 Z" id="Shape"></path>
        </g>
    </g>
</svg>
